static/card-icons/robot.svg

<svg height="682.66669" viewBox="0 0 682.66669 682.66669" width="682.66669" xmlns="http://www.w3.org/2000/svg"><g style="fill:none;stroke:#000;stroke-width:30;stroke-linecap:round;stroke-linejoin:round;stroke-miterlimit:10"><path d="m0 0h-38.662c-8.011 0-14.506 6.494-14.506 14.506v106.915c0 8.012 6.495 14.506 14.506 14.506h38.662" transform="matrix(1.3333333 0 0 -1.3333333 90.75053106457 469.71280865718)"/><path d="m0 0h38.016c8.01 0 14.505-6.494 14.505-14.506v-106.915c0-8.012-6.495-14.506-14.505-14.506h-38.016" transform="matrix(1.3333333 0 0 -1.3333333 592.63851851737 288.47707985474)"/><path d="m0 0h138.771c23.297 0 42.184-18.887 42.184-42.185 0-23.297-18.887-42.184-42.184-42.184h-138.771c-23.298 0-42.185 18.887-42.185 42.184 0 23.298 18.887 42.185 42.185 42.185z" transform="matrix(1.3333333 0 0 -1.3333333 248.81959377951 453.95240905119)"/><path d="m0 0v-84.369" transform="matrix(1.3333333 0 0 -1.3333333 415.15678962108 453.95240905119)"/><path d="m0 0v-84.369" transform="matrix(1.3333333 0 0 -1.3333333 262.57212676903 453.95240905119)"/><path d="m0 0v-84.369" transform="matrix(1.3333333 0 0 -1.3333333 338.86519152837 453.95240905119)"/><path d="m0 0c0 20.235 16.404 36.64 36.64 36.64 20.235 0 36.639-16.405 36.639-36.64s-16.404-36.64-36.639-36.64c-20.236 0-36.64 16.405-36.64 36.64z" transform="matrix(1.3333333 0 0 -1.3333333 401.21932330285 296.34427965806)"/><path d="m0 0c0 20.235 16.404 36.64 36.64 36.64 20.235 0 36.639-16.405 36.639-36.64s-16.404-36.64-36.639-36.64c-20.236 0-36.64 16.405-36.64 36.64z" transform="matrix(1.3333333 0 0 -1.3333333 183.74146207313 296.34427965806)"/><path d="m0 0h-281.69c-26.159 0-47.364-21.205-47.364-47.362v-302.609c0-26.158 21.205-47.363 47.364-47.363h281.69c26.158 0 47.362 21.205 47.362 47.363v302.609c0 26.157-21.204 47.362-47.362 47.362z" transform="matrix(1.3333333 0 0 -1.3333333 529.48878676278 132.88855041112)"/><path d="m0 0v43.131c0 8.012 6.494 14.506 14.505 14.506h173.89c8.01 0 14.504-6.494 14.504-14.506v-43.131" transform="matrix(1.3333333 0 0 -1.3333333 206.06692818166 132.93028374341)"/><path d="m0 0v-27.14" transform="matrix(1.3333333 0 0 -1.3333333 341.33385813332 19.89508656929)"/></g></svg>

<?xml version="1.0" encoding="UTF-8" standalone="no"?>
<!-- Created with Inkscape (http://www.inkscape.org/) -->

<svg
   version="1.1"
   id="svg2265"
   xml:space="preserve"
   width="682.66669"
   height="682.66669"
   viewBox="0 0 682.66669 682.66669"
   xmlns="http://www.w3.org/2000/svg"
   xmlns:svg="http://www.w3.org/2000/svg"><defs
     id="defs2269"><clipPath
       clipPathUnits="userSpaceOnUse"
       id="clipPath2279"><path
         d="M 0,512 H 512 V 0 H 0 Z"
         id="path2277" /></clipPath></defs><g
     id="g2271"
     transform="matrix(1.3333333,0,0,-1.3333333,0,682.66667)"><g
       id="g2273"><g
         id="g2275"
         clipPath="url(#clipPath2279)"><g
           id="g2281"
           transform="translate(68.0629,159.7154)"><path
             d="m 0,0 h -38.662 c -8.011,0 -14.506,6.494 -14.506,14.506 v 106.915 c 0,8.012 6.495,14.506 14.506,14.506 H 0"
             style="fill:none;stroke:#000000;stroke-width:30;stroke-linecap:round;stroke-linejoin:round;stroke-miterlimit:10;stroke-dasharray:none;stroke-opacity:1"
             id="path2283" /></g><g
           id="g2285"
           transform="translate(444.4789,295.6422)"><path
             d="m 0,0 h 38.016 c 8.01,0 14.505,-6.494 14.505,-14.506 v -106.915 c 0,-8.012 -6.495,-14.506 -14.505,-14.506 H 0"
             style="fill:none;stroke:#000000;stroke-width:30;stroke-linecap:round;stroke-linejoin:round;stroke-miterlimit:10;stroke-dasharray:none;stroke-opacity:1"
             id="path2287" /></g><g
           id="g2289"
           transform="translate(186.6147,171.5357)"><path
             d="m 0,0 h 138.771 c 23.297,0 42.184,-18.887 42.184,-42.185 0,-23.297 -18.887,-42.184 -42.184,-42.184 H 0 c -23.298,0 -42.185,18.887 -42.185,42.184 C -42.185,-18.887 -23.298,0 0,0 Z"
             style="fill:none;stroke:#000000;stroke-width:30;stroke-linecap:round;stroke-linejoin:round;stroke-miterlimit:10;stroke-dasharray:none;stroke-opacity:1"
             id="path2291" /></g><g
           id="g2293"
           transform="translate(311.3676,171.5357)"><path
             d="M 0,0 V -84.369"
             style="fill:none;stroke:#000000;stroke-width:30;stroke-linecap:round;stroke-linejoin:round;stroke-miterlimit:10;stroke-dasharray:none;stroke-opacity:1"
             id="path2295" /></g><g
           id="g2297"
           transform="translate(196.9291,171.5357)"><path
             d="M 0,0 V -84.369"
             style="fill:none;stroke:#000000;stroke-width:30;stroke-linecap:round;stroke-linejoin:round;stroke-miterlimit:10;stroke-dasharray:none;stroke-opacity:1"
             id="path2299" /></g><g
           id="g2301"
           transform="translate(254.1489,171.5357)"><path
             d="M 0,0 V -84.369"
             style="fill:none;stroke:#000000;stroke-width:30;stroke-linecap:round;stroke-linejoin:round;stroke-miterlimit:10;stroke-dasharray:none;stroke-opacity:1"
             id="path2303" /></g><g
           id="g2305"
           transform="translate(300.9145,289.7418)"><path
             d="M 0,0 C 0,20.235 16.404,36.64 36.64,36.64 56.875,36.64 73.279,20.235 73.279,0 73.279,-20.235 56.875,-36.64 36.64,-36.64 16.404,-36.64 0,-20.235 0,0 Z"
             style="fill:none;stroke:#000000;stroke-width:30;stroke-linecap:round;stroke-linejoin:round;stroke-miterlimit:10;stroke-dasharray:none;stroke-opacity:1"
             id="path2307" /></g><g
           id="g2309"
           transform="translate(137.8061,289.7418)"><path
             d="M 0,0 C 0,20.235 16.404,36.64 36.64,36.64 56.875,36.64 73.279,20.235 73.279,0 73.279,-20.235 56.875,-36.64 36.64,-36.64 16.404,-36.64 0,-20.235 0,0 Z"
             style="fill:none;stroke:#000000;stroke-width:30;stroke-linecap:round;stroke-linejoin:round;stroke-miterlimit:10;stroke-dasharray:none;stroke-opacity:1"
             id="path2311" /></g><g
           id="g2313"
           transform="translate(397.1166,412.3336)"><path
             d="m 0,0 h -281.69 c -26.159,0 -47.364,-21.205 -47.364,-47.362 v -302.609 c 0,-26.158 21.205,-47.363 47.364,-47.363 H 0 c 26.158,0 47.362,21.205 47.362,47.363 V -47.362 C 47.362,-21.205 26.158,0 0,0 Z"
             style="fill:none;stroke:#000000;stroke-width:30;stroke-linecap:round;stroke-linejoin:round;stroke-miterlimit:10;stroke-dasharray:none;stroke-opacity:1"
             id="path2315" /></g><g
           id="g2317"
           transform="translate(154.5502,412.3023)"><path
             d="m 0,0 v 43.131 c 0,8.012 6.494,14.506 14.505,14.506 h 173.89 c 8.01,0 14.504,-6.494 14.504,-14.506 V 0"
             style="fill:none;stroke:#000000;stroke-width:30;stroke-linecap:round;stroke-linejoin:round;stroke-miterlimit:10;stroke-dasharray:none;stroke-opacity:1"
             id="path2319" /></g><g
           id="g2321"
           transform="translate(256.0004,497.0787)"><path
             d="M 0,0 V -27.14"
             style="fill:none;stroke:#000000;stroke-width:30;stroke-linecap:round;stroke-linejoin:round;stroke-miterlimit:10;stroke-dasharray:none;stroke-opacity:1"
             id="path2323" /></g></g></g></g></svg>
